src/assets/images/icons/delete-bin-6-line.svg

<svg width="24" height="24" viewBox="0 0 24 24" fill="none" xmlns="http://www.w3.org/2000/svg">
<g clip-path="url(#clip0_58_16444)">
<path d="M7 4V2H17V4H22V6H20V21C20 21.2652 19.8946 21.5196 19.7071 21.7071C19.5196 21.8946 19.2652 22 19 22H5C4.73478 22 4.48043 21.8946 4.29289 21.7071C4.10536 21.5196 4 21.2652 4 21V6H2V4H7ZM6 6V20H18V6H6ZM9 9H11V17H9V9ZM13 9H15V17H13V9Z" fill="#181D27"/>
</g>
<defs>
<clipPath id="clip0_58_16444">
<rect width="24" height="24" fill="white"/>
</clipPath>
</defs>
</svg>

<svg xmlns="http://www.w3.org/2000/svg" width="24" height="24" fill="none" viewBox="0 0 24 24"><g clip-path="url(#a)"><path fill="#181d27" d="M7 4V2h10v2h5v2h-2v15a1 1 0 0 1-1 1H5a1 1 0 0 1-1-1V6H2V4zM6 6v14h12V6zm3 3h2v8H9zm4 0h2v8h-2z"/></g><defs><clipPath id="a"><path fill="#fff" d="M0 0h24v24H0z"/></clipPath></defs></svg>
